X: 1
T:Monferrina modenese
C:La Ciapa Rusa: Retanavota 4f
M:6/8
L:1/8
K:G
zBA|G2D G2B|d3 zcB|ABc DEF|GAB BAG|\
G2D G2B|d3 zcB|ABc DEF|G3:|
|:z2G|BAG BAG|GFF FzF|cBA cBA|BAB G2G|\
BAG BAG|GFF Ace|dAB cEF|G3:|
